X:150
T:Sleep on till day
R:Slow Air
S:Gow - 3rd Repository
O:Scottish
M:3/4
L:1/8
Q:1/4=120
K:C Minor
A2|(G2D2)E2|c3de2|G2E2 D>C|C4A2|G2(D2E2)|~c3d e2|E2A2~^G2|A4 c>A|
G2(D2E2)|c3~d e2|G2E2D2|C4||
c>d|{cd}e3dc2|(c2G2)GA|_B2A2 A>c|{=B}(c2G2)G2|{G}e2edc2|(c2G2)Ac|
G2E2D2|{D}E4 A2|G2(D2E2)|c3~de2|G>A E2 D>C|C4||

